melody-of-light/img/icons/icomoon/home.svg

<svg width="24" height="24" viewBox="0 0 24 24" fill="none" xmlns="http://www.w3.org/2000/svg">
<path fill-rule="evenodd" clip-rule="evenodd" d="M9.77939 3.77261C10.4229 3.27203 11.215 3.00024 12.0303 3.00024C12.8456 3.00024 13.6377 3.27205 14.2812 3.77267M14.2812 3.77267L19.6138 7.92033C19.6139 7.92045 19.6136 7.92022 19.6138 7.92033C20.5075 8.61491 21.0303 9.68362 21.0303 10.815V18.015C21.0303 18.8107 20.7142 19.5737 20.1516 20.1363C19.589 20.6989 18.8259 21.015 18.0303 21.015H6.03027C5.23463 21.015 4.47156 20.6989 3.90895 20.1363C3.34634 19.5737 3.03027 18.8107 3.03027 18.015V10.8152C3.03027 10.8151 3.03027 10.8153 3.03027 10.8152C3.03008 10.2569 3.15744 9.70576 3.40263 9.20419C3.64788 8.70247 4.00455 8.26344 4.44539 7.92062L9.77939 3.77261C9.77944 3.77257 9.77934 3.77265 9.77939 3.77261M12.0303 5.00024C11.6597 5.00024 11.2998 5.12377 11.0073 5.3513L5.67316 9.49941C5.67316 9.49941 5.67316 9.49941 5.67316 9.49941C5.47289 9.65515 5.31085 9.85461 5.19943 10.0825C5.08801 10.3105 5.03015 10.5608 5.03027 10.8145V18.015C5.03027 18.2802 5.13563 18.5346 5.32317 18.7221C5.5107 18.9097 5.76506 19.015 6.03027 19.015H18.0303C18.2955 19.015 18.5498 18.9097 18.7374 18.7221C18.9249 18.5346 19.0303 18.2802 19.0303 18.015V10.815C19.0303 10.3006 18.7928 9.81513 18.3868 9.49969L13.0533 5.35136C12.7609 5.12383 12.4008 5.00024 12.0303 5.00024Z" fill="#EC863D"/>
</svg>

<svg width="24" height="24" fill="none" xmlns="http://www.w3.org/2000/svg"><path fill-rule="evenodd" clip-rule="evenodd" d="M9.78 3.773a3.666 3.666 0 014.501 0m0 0l5.333 4.147a3.667 3.667 0 011.416 2.895v7.2a3 3 0 01-3 3h-12a3 3 0 01-3-3v-7.2a3.666 3.666 0 011.415-2.894L9.78 3.773M12.03 5c-.37 0-.73.124-1.023.351L5.673 9.5a1.665 1.665 0 00-.643 1.316v7.2a1 1 0 001 1h12a1 1 0 001-1v-7.2c0-.514-.237-1-.643-1.315L13.053 5.35A1.666 1.666 0 0012.03 5z" fill="#EC863D"/></svg>
